!!!!SEGMENT: Opi2002-Summe_laudis_o_Maria--Lofzangen.krn
!!!id: Opi2002
!!!SMS: Lofzangen
!!!AGN: Motet
!!!voices: 4
!!!COM: Benedictus de Opitiis
!!!OTL: Summe laudis o Maria (Lofzangen)
**kern	**kern	**kern	**kern
*part4	*part3	*part2	*part1
*staff4	*staff3	*staff2	*staff1
*I"Bassus	*I"Tenor	*I"Altus	*I"Superius
*I'B	*I'T	*I'A	*I'S
*clefF4	*clefGv2	*clefGv2	*clefG2
*k[b-]	*k[b-]	*k[b-]	*k[b-]
*M3/1	*M3/1	*M3/1	*M3/1
*met(O)	*met(O)	*met(O)	*met(O)
=1	=1	=1	=1
!!section: Prima pars: Summe laudis o Maria
!!!OMD: Prima pars: Summe laudis o Maria
0.r	0.r	0f	0f
.	.	1f	1a
=2	=2	=2	=2
0F	0F	1f	0.cc
.	.	0f	.
1F	1A	.	.
=3	=3	=3	=3
1F	0c	1r	0a
0F	.	0f	.
.	1c	.	[1a
=4	=4	=4	=4
1FF	1A	1f	1a]
1FF	1A	0c	0f
1FF	1A	.	.
=5	=5	=5	=5
0.C;	0.G;	0.c;	0.e;
=6	=6	=6	=6
0C	1G	0c	0e
.	1A	.	.
[1D	1F	[1A	[1f
=7	=7	=7	=7
1D]	1F	1A]	1f]
0BB-y	0B-y	0d	0f
=8	=8	=8	=8
0F	0.A	0c	0a
1F	.	1d	1a
=9	=9	=9	=9
2.G	2r	2B-y	1b-y
.	2G	2.d	.
4E	.	.	.
2F	2D	.	2a
.	.	4c	.
2C	2E	1c	2g
1D	1F	.	1f
.	.	2BnXi	.
=10	=10	=10	=10
0C	1G	0c	1e
.	2G	.	1r
.	2A	.	.
1C	2G	1r	1g
.	[2E	.	.
=11	=11	=11	=11
1AA	2E]	2r	2.cc
.	1F	1c	.
.	.	.	4b-y
1C	.	.	2a
.	2E	2c	2g
1D	1F	2A	1f
.	.	2B-y	.
=12	=12	=12	=12
1AA	1A	1c	2e
.	.	.	2c
1BB-y	0G	1B-y	2d
.	.	.	1f
1C	.	1G	.
.	.	.	2e
=13	=13	=13	=13
2FF	1F	1A	2f
1F	.	.	1a
.	1r	2r	.
2E	.	1c	2g
2F	2.F	.	2a
2D	.	2B-y	2b-y
.	4G	.	.
=14	=14	=14	=14
1C	4A	1c	2a
.	4B-y	.	.
.	4c	.	2.g
.	4A	.	.
1BB-y	1B-y	1d	.
.	.	.	4f
.	.	.	1f
1C	1G	1c	.
.	.	.	2e
=15	=15	=15	=15
1r	0F	1.c	0f
1F	.	.	.
.	.	2A	.
1G	1r	1B-y	1r
=16	=16	=16	=16
2F	1r	1A	0.r
2D	.	.	.
2E	1c	1r	.
2E	.	.	.
1D	2d	1r	.
.	2d	.	.
=17	=17	=17	=17
4F	2c	0.r	0.r
4G	.	.	.
1A	2A	.	.
.	2B-y	.	.
2G	2B-y	.	.
2A	1A	.	.
[2F	.	.	.
=18	=18	=18	=18
4F]	2.F	0.r	0.r
4G	.	.	.
4A	.	.	.
4B-y	4G	.	.
2.c	4A	.	.
.	4B-y	.	.
.	2.c	.	.
4B-y	.	.	.
4A	.	.	.
4G	4B-y	.	.
[2F	4A	.	.
.	4G	.	.
=19	=19	=19	=19
4F]	2A	0.r	0.r
4E	.	.	.
4D	1B-y	.	.
4C	.	.	.
2D	.	.	.
2C	1A	.	.
1BB-y	.	.	.
.	2G	.	.
=20	=20	=20	=20
1AA	1A	1r	1cc
1r	1r	1d	2b-y
.	.	.	2.a
1r	1r	1c	.
.	.	.	4g
.	.	.	4f
.	.	.	4e
=21	=21	=21	=21
0.r	0.r	1B-y	2d
.	.	.	2.dd
.	.	2.d	.
.	.	.	4cc
.	.	.	4b-y
.	.	4c	4a
.	.	4B-y	2g
.	.	4A	.
.	.	2G	2b-y
=22	=22	=22	=22
1r	0.r	1c	2a
.	.	.	2.g
1r	.	2B-y	.
.	.	.	4f
.	.	2A	1f
1C	.	1G	.
.	.	.	2e
=23	=23	=23	=23
1D	1A	1F	2.f
.	.	.	8eL
.	.	.	8dJ
1.F	2A	2r	2c
.	1c	1A	1f
2E	2c	2G	2g
=24	=24	=24	=24
2D	2.f	1F	2a
2BB-y	.	.	2b-y
.	4e	.	.
2C	2e	2r	2g
2AA	1c	1f	2a
1GG	.	.	2b-y
.	2B-y	2e	2g
=25	=25	=25	=25
1FF	1c	2f	2a
.	.	2c	1cc
1r	2r	2e	.
.	2G	2d	2b-y
1r	2.A	2.c	2.cc
.	4B-y	4d	8b-yL
.	.	.	8aJ
=26	=26	=26	=26
2r	2c	2e	2g
2FF	2F	2.c	2a
2GG	2.E	.	2g
.	.	4B-y	.
2AA	.	2c	1f
.	4F	.	.
2BB-y	1G	2r	.
2C	.	[2c	2e
=27	=27	=27	=27
2D	1F	2c]	1f
2D	.	2B-y	.
1C	2r	0c	1e
.	2G	.	.
2.AA	1A	.	2r
.	.	.	[2e
4BB-y	.	.	.
=28	=28	=28	=28
2C	2G	1r	2e]
2D	2F	.	2f
2.C	1E	2r	2g
.	.	2G	2.e
4BB-y	.	.	.
2AA	1A	2c	.
.	.	.	4c
2FF	.	2c	[2f
=29	=29	=29	=29
1C	2G	2c	2f]
.	1A	1c	2e
2FF	.	.	1f
1F	4G	2c	.
.	4F	.	.
.	1G	1c	1r
2E	.	.	.
=30	=30	=30	=30
1F	0F	1r	0a
1r	.	2c	.
.	.	1f	.
1r	1r	.	1a
.	.	2f	.
=31	=31	=31	=31
0C	0c	0e	0g
1C	1c	1e	1g
=32	=32	=32	=32
1F	1c	1f	1a
1G	1B-y	1d	2.b-y
.	.	.	4a
1C	1c	1e	2g
.	.	.	2e
=33	=33	=33	=33
1BB-y	1d	1d	2f
.	.	.	2.b-y
1F	2c	2r	.
.	.	.	4a
.	2A	2f	1a
1G	1B-y	2.d	.
.	.	.	2g
.	.	4e	.
=34	=34	=34	=34
1D	1A	4f	1a
.	.	4g	.
.	.	2.a	.
4C	1r	.	1r
4BB-y	.	4g	.
4AA	.	2g	.
4GG	.	.	.
1AA	1A	4f	1cc
.	.	4e	.
.	.	2f	.
=35	=35	=35	=35
0.r	1B-y	1g	1b-y
.	1c	2r	2a
.	.	2e	1g
.	1d	2f	.
.	.	[2d	2f
=36	=36	=36	=36
0.r	1G	2d]	1g
.	.	2c	.
.	2A	2d	2f
.	1c	1G	2e
.	.	.	1f
.	2B-y	2F	.
=37	=37	=37	=37
0.r	1c	2G	1e
.	.	1A	.
.	1r	.	1r
.	.	4G	.
.	.	4F	.
.	1r	1G	1g
=38	=38	=38	=38
0.r	1c	1F	0a
.	1c	1.f	.
.	1A	.	1a
.	.	2e	.
=39	=39	=39	=39
0.r	2.B-y	1d	2g
.	.	.	2f
.	4A	.	.
.	2G	2c	2e
.	2F	2B-y	1f
.	1G	1c	.
.	.	.	2e
=40	=40	=40	=40
0.r	(0.F	0.c	0.f
=41	=41	=41	=41
0.r	0.F)	1r	1a
.	.	1r	2a
.	.	.	2a
.	.	1c	1a
=42	=42	=42	=42
0.r	0.r	2c	1g
.	.	2c	.
.	.	1c	1a
.	.	1B-y	1b-y
=43	=43	=43	=43
0.r	0.r	1c	0a
.	.	1d	.
.	.	[1c	1r
=44	=44	=44	=44
0.r	0.r	1c]	1a
.	.	2r	2a
.	.	2c	2a
.	.	2c	1a
.	.	2c	.
=45	=45	=45	=45
0.r	0.r	2B-y	2g
.	.	1d	1b-y
.	.	2c	1a
.	.	1B-y	.
.	.	.	2g
=46	=46	=46	=46
0.r	0.r	1A	0a
.	.	1r	.
.	.	1c	1r
=47	=47	=47	=47
0.r	0.r	1c	1cc
.	.	1A	1cc
.	.	1c	1a
=48	=48	=48	=48
0.r	0.r	2d	1b-y
.	.	2B-y	.
.	.	2c	2a
.	.	1f	2f
.	.	.	1g
.	.	2e	.
=49	=49	=49	=49
0.r	0.r	0f	0f
.	.	1r	1r
=50	=50	=50	=50
0F	0A	0f	0cc
1F	1A	1f	1cc
=51	=51	=51	=51
1D	1A	1f	1dd
1F	1A	1f	2cc
.	.	.	2a
1E-X	1G	1g	2b-y
.	.	.	2cc
=52	=52	=52	=52
1D	1A	1f	1dd
0BB-y	0B-y	0f	0dd
=53	=53	=53	=53
1F	1A	1f	1cc
1r	1r	1r	1r
1F	1A	1f	1cc
=54	=54	=54	=54
1G	1B-y	1d	1b-y
1G	1B-y	1e	1g
[1F	[1c	1f	2.a
.	.	.	4b-y
=55	=55	=55	=55
2F]	2c]	1a	4cc
.	.	.	4a
2F	2A	.	1dd
2G	2B-y	2g	.
2A	2c	2f	1cc
1G	1d	1g	.
.	.	.	2bnXi
=56	=56	=56	=56
0C	0c	0e	0cc
1r	1r	1r	1r
=57	=57	=57	=57
1F	1c	1f	1a
1C	1c	1e	1g
1D	1A	[1d	1f
=58	=58	=58	=58
2BB-y	1B-y	2d]	2d
2C	.	1c	2.g
1D	2A	.	.
.	.	.	4f
.	2F	2B-y	1f
1C	1G	1c	.
.	.	.	2e
=59	=59	=59	=59
0.FFl	0.Fl	0.cl	0.fl
=60||	=60||	=60||	=60||
*M2/1	*M2/1	*M2/1	*M2/1
*met(C2)	*met(C2)	*met(C2)	*met(C2)
!!section: Secunda pars: Ergo Cesar
!!!OMD: Secunda pars: Ergo Cesar
0F	0c	0f	0a
=61	=61	=61	=61
0F	0A	1f	1cc
.	.	1f	1cc
=62	=62	=62	=62
0BB-y	0B-y	0f	0dd
=63	=63	=63	=63
1F	1A	2r	2.cc
.	.	1f	.
.	.	.	4b-y
2r	1c	.	1a
2F	.	[2c	.
=64	=64	=64	=64
2E	2r	2c]	2g
2F	1c	1f	2a
1G	.	.	1b-y
.	2B-y	2e	.
=65	=65	=65	=65
1.F	2c	0f	1.a
.	2d	.	.
.	1c	.	.
4E	.	.	4g
4D	.	.	4f
=66	=66	=66	=66
1C	1c	0e	2a
.	.	.	2g
1C	[1A	.	1cc
=67	=67	=67	=67
1AA	1A]	2f	2r
.	.	2e	2.cc
1FF	2r	1f	.
.	.	.	4b-y
.	[2c	.	2a
=68	=68	=68	=68
1C	2c]	1e	2g
.	2c	.	2g
1F	1c	1f	1a
=69	=69	=69	=69
1C	1c	1e	1g
1F	1F	2r	1a
.	.	2f	.
=70	=70	=70	=70
0BB-y	0F	2d	1.b-y
.	.	2B-y	.
.	.	[1B-y	.
.	.	.	4a
.	.	.	4g
=71	=71	=71	=71
1.BB-y	1F	1B-]	1.f
.	1B-y	2.d	.
4AA	.	.	2g
4GG	.	4e	.
=72	=72	=72	=72
1FF	1.c	1f	1a
1C	.	1e	(1g
.	2B-y	.	.
=73	=73	=73	=73
1D	1A	0d	2g)
.	.	.	2f
1BB-y	1B-y	.	[1f
=74	=74	=74	=74
0C	0G	1c	1f]
.	.	2r	1e
.	.	2c	.
=75	=75	=75	=75
1FF	0F	2A	0f
.	.	2d	.
1r	.	2c	.
.	.	[2A	.
=76	=76	=76	=76
1F	1r	2A]	2r
.	.	1c	1a
2F	1c	.	.
[2F	.	[2f	2a
=77	=77	=77	=77
2F]	1c	2f]	1a
2F	.	2f	.
1F	1c	1f	1a
=78	=78	=78	=78
2.BB-y	1.d	1f	1.b-y
4C	.	.	.
4D	.	2.F	.
4E	.	.	.
2F	4c	.	[2a
.	4B-y	4G	.
=79	=79	=79	=79
2F	2c	2A	2a]
4E	2F	2B-y	4g
4D	.	.	4f
2C	2G	2c	2e
2BB-y	2B-y	[2d	2d
=80	=80	=80	=80
2C	4A	4d]	2e
.	4G	4c	.
2E	1G	1c	2c
1D	.	.	4d
.	.	.	4e
.	2F	2B-y	4f
.	.	.	4d
=81	=81	=81	=81
(0C	1G	2.c	[0e
.	.	4B-y	.
.	2r	2G	.
.	2G	[2c	.
=82	=82	=82	=82
0C)	2A	2c]	0e]
.	2G	4B-y	.
.	.	4A	.
.	1c	1G	.
=83	=83	=83	=83
2r	2r	1F	0r
2F	2A	.	.
2F	2A	1r	.
2F	2A	.	.
=84	=84	=84	=84
4E	4G	0r	0r
4F	4A	.	.
4G	4B-y	.	.
4F	4A	.	.
4G	4B-y	.	.
4F	4A	.	.
4E	4G	.	.
4D	4F	.	.
=85	=85	=85	=85
2E	2G	0r	0r
2F	2.A	.	.
1D	.	.	.
.	4G	.	.
.	4A	.	.
.	4B-y	.	.
=86	=86	=86	=86
2C	2.c	0r	0r
2.F	.	.	.
.	4B-y	.	.
.	4A	.	.
4E	4G	.	.
[2D	[2B-y	.	.
=87	=87	=87	=87
4D]	4B-]	0r	0r
4C	4A	.	.
4BB-y	1A	.	.
4AA	.	.	.
2BB-y	.	.	.
2C	2G	.	.
=88	=88	=88	=88
1FF	1A	2r	2r
.	.	2F	2a
1r	1r	2F	2a
.	.	2F	2a
=89	=89	=89	=89
0r	0r	1c	4g
.	.	.	4a
.	.	.	4b-y
.	.	.	4a
.	.	1d	4b-y
.	.	.	4a
.	.	.	4g
.	.	.	4f
=90	=90	=90	=90
0r	0r	2e	2g
.	.	1f	2a
.	.	.	4a
.	.	.	4g
.	.	4e	4a
.	.	4d	4b-y
=91	=91	=91	=91
0r	0r	2e	2.cc
.	.	2.f	.
.	.	.	4b-y
.	.	.	4a
.	.	4e	4g
.	.	[2d	[2b-y
=92	=92	=92	=92
0r	0r	4d]	4b-]
.	.	4c	4a
.	.	4B-y	1a
.	.	4A	.
.	.	2B-y	.
.	.	2c	2g
=93	=93	=93	=93
0r	0r	2.F	1a
.	.	4G	.
.	.	2A	2r
.	.	2B-y	2g
=94	=94	=94	=94
1r	1r	2c	2a
.	.	2d	2b-y
1C	2r	2.e	2.cc
.	2G	.	.
.	.	4d	4b-y
=95	=95	=95	=95
2F	2A	2c	2a
2G	2B-y	2B-y	2.g
2E	2.c	1G	.
.	.	.	4f
2C	.	.	4e
.	4B-y	.	4d
=96	=96	=96	=96
2F	2A	2A	2c
2D	2F	2B-y	1f
1C	1G	1c	.
.	.	.	2e
=97	=97	=97	=97
1FF	1F	1.A	0f
1r	1r	.	.
.	.	4G	.
.	.	4F	.
=98	=98	=98	=98
0F	0F	1F	1r
.	.	2r	1cc
.	.	[2f	.
=99	=99	=99	=99
0F	0A	2f]	2.cc
.	.	2f	.
.	.	.	4b-y
.	.	1f	2cc
.	.	.	[2dd
=100	=100	=100	=100
0G	0B-y	1.d	4dd]
.	.	.	4cc
.	.	.	4b-y
.	.	.	4a
.	.	.	1b-y
.	.	4c	.
.	.	4B-y	.
=101	=101	=101	=101
0F	0c	1f	2.a
.	.	.	4b-y
.	.	2f	4cc
.	.	.	4dd
.	.	[2f	[2cc
=102	=102	=102	=102
1.F	2.c	2f]	4cc]
.	.	.	4b-y
.	.	2f	4a
.	4d	.	4g
.	2c	[1f	2a
2BB-y	[2d	.	[2b-y
=103	=103	=103	=103
1F	4d]	1f]	4b-]
.	4c	.	4a
.	4B-y	.	1a
.	4A	.	.
1G	1B-y	1d	.
.	.	.	2g
=104	=104	=104	=104
1D	0A	2d	0a
.	.	2.f	.
2r	.	.	.
.	.	4e	.
2D	.	2f	.
=105	=105	=105	=105
1G	1r	1B-y	1b-y
1F	1A	1c	2a
.	.	.	2a
=106	=106	=106	=106
1.BB-y	2.B-y	1.d	2f
.	.	.	2.b-y
.	4c	.	.
.	2d	.	.
.	.	.	4a
2C	2e	2c	[2a
=107	=107	=107	=107
2D	2f	1B-y	2a]
2E	2e	.	2g
1F	2.c	1A	1a
.	8B-yL	.	.
.	8cJ	.	.
=108	=108	=108	=108
2r	2B-y	1r	2g
2F	2A	.	2f
1C	1G	1c	1e
=109	=109	=109	=109
1F	1A	1c	2r
.	.	.	2a
[1BB-y	[1B-y	[1d	2g
.	.	.	[2f
=110	=110	=110	=110
1BB-]	1B-]	1d]	2f]
.	.	.	2d
1C	1G	1c	1e
=111	=111	=111	=111
2D	1F	2A	2f
2F	.	1d	2a
1E	1G	.	1g
.	.	2c	.
=112	=112	=112	=112
2D	1A	1d	1f
1F	.	.	.
.	2r	1c	1g
2E	2G	.	.
=113	=113	=113	=113
1F	1A	1A	2f
.	.	.	2a
1D	1F	1B-y	2a
.	.	.	4g
.	.	.	4f
=114	=114	=114	=114
0C	1G	1.c	[0e
.	2r	.	.
.	[2c	4B-y	.
.	.	4A	.
=115	=115	=115	=115
1r	4c]	2G	1e]
.	4B-y	.	.
.	2A	1.c	.
1C	1G	.	2r
.	.	.	2e
=116	=116	=116	=116
2D	1F	2A	1f
2BB-y	.	2.B-y	.
1BB-y	1B-y	.	2f
.	.	4A	.
.	.	2B-y	[2b-y
=117	=117	=117	=117
0E-i	1.B-y	1G	2b-]
.	.	.	2g
.	.	1r	[1g
.	4A	.	.
.	4G	.	.
=118	=118	=118	=118
1E-i	2B-y	0e-i	1g]
.	2c	.	.
1E-i	(1B-y	.	1g
=119	=119	=119	=119
1BB-y	1B-y)	1d	2f
.	.	.	2b-y
1C	1r	1c	2a
.	.	.	2g
=120	=120	=120	=120
1GG	2.G	1d	1g
.	4G	.	.
2GG	1D	2r	2.b-y
[2BB-y	.	2d	.
.	.	.	4a
=121	=121	=121	=121
4BB-]	2D	2B-y	2f
4AA	.	.	.
2FF	2F	1c	2a
2r	2E	.	2g
2FF	2F	[2c	[2f
=122	=122	=122	=122
0C	0G	4c]	2f]
.	.	4B-y	.
.	.	2G	2e
.	.	[1c	1e
=123	=123	=123	=123
0r	0r	2c]	2r
.	.	2G	2g
.	.	2A	2f
.	.	[2c	[2e
=124	=124	=124	=124
0r	2r	4c]	2e]
.	.	4B-y	.
.	1c	2A	4d
.	.	.	4c
.	.	1G	2.d
.	2B-y	.	.
.	.	.	4e
=125	=125	=125	=125
1r	1c	2F	2f
.	.	2.A	2.f
2r	2F	.	.
.	.	4B-y	4d
2C	2G	2c	[2e
=126	=126	=126	=126
2C	2A	2c	4e]
.	.	.	4c
4BB-y	2B-y	2d	1f
4BB-y	.	.	.
2C	1G	1c	.
2C	.	.	2e
=127	=127	=127	=127
[0FF	[0F	0A	0f
=128	=128	=128	=128
0FF]	0F]	2r	0r
.	.	2c	.
.	.	2c	.
.	.	2c	.
=129	=129	=129	=129
0r	0r	2d	2r
.	.	4c	2f
.	.	4B-y	.
.	.	2A	2f
.	.	2B-y	2f
=130	=130	=130	=130
0r	0r	2G	2g
.	.	2A	4f
.	.	.	4e
.	.	2B-y	2d
.	.	(2c	2e
=131	=131	=131	=131
0r	0r	2c)	2c
.	.	2B-y	2d
.	.	2c	2e
.	.	2e	2g
=132	=132	=132	=132
0r	0r	4d	4f
.	.	4c	4e
.	.	4B-y	4d
.	.	4A	4c
.	.	1BnXi	1d
=133	=133	=133	=133
0r	0r	1c	0c
.	.	2r	.
.	.	2c	.
=134	=134	=134	=134
0r	1r	2d	2r
.	.	2e	2g
.	2r	2f	2a
.	2G	4e	2b-y
.	.	4d	.
=135	=135	=135	=135
0r	2A	2c	2cc
.	2B-y	2d	4b-y
.	.	.	4a
.	2c	2e	4g
.	.	.	4a
.	2G	[2d	4b-y
.	.	.	4cc
=136	=136	=136	=136
0r	2B-y	4d]	2dd
.	.	4B-y	.
.	2A	2c	1cc
.	1G	1d	.
.	.	.	2bnXi
=137	=137	=137	=137
0C	0G	0c	1cc
.	.	.	2r
.	.	.	(2cc
=138	=138	=138	=138
1C	0c	1e	2cc)
.	.	.	4b-y
.	.	.	4a
1C	.	2r	2g
.	.	2e	(2cc
=139	=139	=139	=139
1.F	1c	1f	4cc)
.	.	.	4b-y
.	.	.	2a
.	1c	(1f	2a
4E	.	.	4g
4D	.	.	4f
=140	=140	=140	=140
1C	1c	2f)	1g
.	.	4e	.
.	.	4d	.
1C	1c	1e	2r
.	.	.	2g
=141	=141	=141	=141
2.F	1A	1f	1a
4E	.	.	.
2D	[1d	(1f	(1b-y
2C	.	.	.
=142	=142	=142	=142
0BB-y	2d]	2f)	2b-y)
.	2c	2e	2a
.	2B-y	2d	2g
.	2A	2d	2f
=143	=143	=143	=143
1C	1G	1c	1e
1D	1F	1B-y	(1f
=144	=144	=144	=144
0C	0G	0c	1f)
.	.	.	1e
=145	=145	=145	=145
4FF	1F	2r	1f
4GG	.	.	.
4AA	.	2.c	.
4BB-y	.	.	.
2C	1r	.	1r
.	.	4A	.
2D	.	2B-y	.
=146	=146	=146	=146
2E	0r	2c	0r
1F	.	2B-y	.
.	.	1G	.
2E	.	.	.
=147	=147	=147	=147
0F	2r	1F	0r
.	2.F	.	.
.	.	2r	.
.	4G	.	.
.	4A	(2F	.
.	4B-y	.	.
=148	=148	=148	=148
1r	1.c	4F)	0a
.	.	4G	.
.	.	4A	.
.	.	4B-y	.
1F	.	4c	.
.	.	4F	.
.	[2d	[2f	.
=149	=149	=149	=149
1F	2d]	2f]	1a
.	1c	2f	.
1F	.	2f	1a
.	2f	2c	.
=150	=150	=150	=150
1C	2e	2.c	1g
.	1c	.	.
.	.	4B-y	.
1D	.	2A	1f
.	2B-y	2F	.
=151	=151	=151	=151
1.C	1c	2G	2.e
.	.	1.c	.
.	.	.	4f
.	1r	.	1g
4D	.	.	.
4E	.	.	.
=152	=152	=152	=152
1F	1c	1A	2.a
.	.	.	4f
2G	2B-y	2d	2b-y
[2F	[2c	[2f	[2a
=153	=153	=153	=153
4F]	4c]	2f]	4a]
4E	4d	.	4g
2C	4e	2.g	1cc
.	4c	.	.
1G	1d	.	.
.	.	4f	.
.	.	2d	2bnXi
=154	=154	=154	=154
[0C	0c	0e	1.cc
.	.	.	4b-y
.	.	.	4a
=155	=155	=155	=155
0C]	1r	0e	0g
.	[1c	.	.
=156	=156	=156	=156
1F	1c]	1f	1a
1C	1c	1e	1g
=157	=157	=157	=157
2D	2A	0d	1f
1.BB-y	1B-y	.	.
.	.	.	[1b-y
.	2F	.	.
=158	=158	=158	=158
1GG	2G	2r	2b-]
.	1d	2B-y	4a
.	.	.	4g
1BB-y	.	2.d	2f
.	2B-y	.	2g
.	.	4e	.
=159	=159	=159	=159
[0FF	1.c	0f	0a
.	2d	.	.
=160	=160	=160	=160
0FF]	2c	0f	1a
.	2.A	.	.
.	.	.	1a
.	4B-y	.	.
.	[2c	.	.
=161	=161	=161	=161
0C	2c]	0e	1.g
.	1G	.	.
.	2A	.	[2e
=162	=162	=162	=162
0C	2G	1r	4e]
.	.	.	4f
.	2.E	.	2g
.	.	[1e	4g
.	4F	.	4f
.	2G	.	4e
.	.	.	4d
=163	=163	=163	=163
2r	1G	2e]	0e
2C	.	(1.c	.
2.AA	1A	.	.
4BB-y	.	.	.
=164	=164	=164	=164
1C	0G	2c)	2r
.	.	1c	1e
2r	.	.	.
2C	.	2e	2g
=165	=165	=165	=165
2D	2r	2d	2f
2E	2G	1c	2e
2F	2A	.	1d
2G	2B-y	2BnXi	.
=166	=166	=166	=166
1.C	1G	1c	2e
.	.	.	2c
.	1c	2r	[1c
(2F	.	[2c	.
=167	=167	=167	=167
1F)	1A	2c]	1c]
.	.	4B-y	.
.	.	4A	.
1E	1B-y	1G	[1g
=168	=168	=168	=168
1C	1c	1A	2g]
.	.	.	2f
1D	1F	1B-y	[1f
=169	=169	=169	=169
0C	0G	0c	2f]
.	.	.	4e
.	.	.	4d
.	.	.	1e
=170	=170	=170	=170
0FF	1F	1c	0f
.	1r	2r	.
.	.	2F	.
=171	=171	=171	=171
1r	1F	0c	1r
1C	[1c	.	1g
=172	=172	=172	=172
0F	1c]	1A	1.a
.	1A	[1d	.
.	.	.	2g
=173	=173	=173	=173
1D	1.d	2d]	2.f
.	.	2c	.
.	.	.	4e
[1G	.	2B-y	1d
.	2c	2A	.
=174	=174	=174	=174
2G]	2B-y	(0G	1.g
2F	2A	.	.
2E	1G	.	.
2D	.	.	2f
=175	=175	=175	=175
2C	1.c	1G)	2e
2BB-y	.	.	2d
2.AA	.	1c	1c
.	2B-y	.	.
4GG	.	.	.
=176	=176	=176	=176
1FF	2.A	2.c	2r
.	.	.	2.cc
.	4B-y	4d	.
1C	[1G	2.e	.
.	.	.	4b-y
.	.	.	4a
.	.	8dL	4g
.	.	8eJ	.
=177	=177	=177	=177
0D	2G]	4d	2b-y
.	.	4c	.
.	4F	1c	1a
.	4E	.	.
.	1F	.	.
.	.	2B-y	4g
.	.	.	4f
=178	=178	=178	=178
0C;	0G;	0c;	0e;
=179	=179	=179	=179
*M3/1	*M3/1	*M3/1	*M3/1
*met(3)	*met(3)	*met(3)	*met(3)
1F	1A	1c	1f
1F	1c	1f	1a
1F	1c	1f	1a
=180	=180	=180	=180
0G	1B-y	1.d	0b-y
.	1B-y	.	.
.	.	2e	.
1F	[1c	1f	1a
=181	=181	=181	=181
1C	1c]	1e	1g
0D	1A	0d	0f
.	1B-y	.	.
=182	=182	=182	=182
1C	0c	0G	0e
1r	.	.	.
1C	1r	1r	1r
=183	=183	=183	=183
1C	0c	1G	1e
1AA	.	1A	1e
1BB-y	1B-y	1F	1d
=184	=184	=184	=184
1GG	1B-y	1G	1d
1AA	1A	1E	1c
1FF	1A	1F	[1f
=185	=185	=185	=185
1FF	0c	1r	1f]
1.F	.	1F	1.a
.	1c	1A	.
2E	.	.	2g
=186	=186	=186	=186
1D	1F	1B-y	0f
0C	0G	0c	.
.	.	.	1e
=187	=187	=187	=187
1FF	0.F	0A	0.f
1.F	.	.	.
.	.	1A	.
2E	.	.	.
=188	=188	=188	=188
2D	0.r	1.B-y	0.r
2C	.	.	.
2BB-y	.	.	.
2C	.	2A	.
2D	.	2B-y	.
2E	.	2c	.
=189	=189	=189	=189
1D	0.r	1B-y	0.r
0C	.	1A	.
.	.	1G	.
=190	=190	=190	=190
0.BB-y	1d	0.B-y	0f
.	1d	.	.
.	1d	.	1g
=191	=191	=191	=191
0.r	1d	1B-y	1f
.	1B-y	1.G	1.b-y
.	1c	.	.
.	.	2F	2a
=192	=192	=192	=192
0.r	1.d	1D	1a
.	.	1r	2b-y
.	2c	.	1a
.	1B-y	1r	.
.	.	.	2g
=193	=193	=193	=193
1F	0.A	1.A	0.a
1F	.	.	.
.	.	2B-y	.
1F	.	1c	.
=194	=194	=194	=194
1.G	0.r	1B-y	0.r
.	.	1.d	.
2F	.	.	.
1G	.	.	.
.	.	2c	.
=195	=195	=195	=195
1E	0.r	0c	1r
1.D	.	.	1r
.	.	1BnXi	1d
4C	.	.	.
4BB-y	.	.	.
=196	=196	=196	=196
1AA	1.A	1c	1.e
1r	.	1r	.
.	2B-y	.	2d
1r	1c	1r	2e
.	.	.	2f
=197	=197	=197	=197
0.r	1B-y	1r	1g
.	1.d	1r	1f
.	.	1A	1g
.	2c	.	.
=198	=198	=198	=198
0.r	0c	1A	1e
.	.	1F	0d
.	1B-y	1G	.
=199	=199	=199	=199
1.AA	1.c	1C	1c
.	.	1r	1.cc
2BB-y	2B-y	.	.
1C	2A	1c	.
.	2G	.	2b-y
=200	=200	=200	=200
1D	1F	1f	1a
1E	1G	1e	1.g
1F	1A	[1d	.
.	.	.	2f
=201	=201	=201	=201
1BB-y	1B-y	1d]	0f
0C	1.G	0c	.
.	.	.	1e
.	2A	.	.
=202	=202	=202	=202
0BB-y	0B-y	0d	0f
1r	2A	2c	1r
.	2G	2B-y	.
=203	=203	=203	=203
1.D	0F	1A	1.f
.	.	1r	.
2E	.	.	2g
1F	1r	1r	1a
=204	=204	=204	=204
1.BB-y	1.F	1.B-y	1.d
2C	2E	2A	2c
2BB-y	2F	2B-y	2d
2C	2E	2A	2c
=205	=205	=205	=205
1BB-y	1F	0B-y	1.d
1GG	1G	.	.
.	.	.	2e
1FF	[1A	1c	1f
=206	=206	=206	=206
2F	2A]	1c	2f
2E	2G	.	2g
2D	2B-y	2d	2f
2C	2c	2e	2e
1F	1A	1c	1a
=207	=207	=207	=207
1BB-y	1B-y	1d	2g
.	.	.	1f
0C	0G	0c	.
.	.	.	2e
.	.	.	2e
.	.	.	2d
=208	=208	=208	=208
*M2/1	*M2/1	*M2/1	*M2/1
*met(C|)	*met(C|)	*met(C|)	*met(C|)
0FF	0F	0c	0f
=209	=209	=209	=209
1r	1r	1r	1r
1F	1c	1A	1a
=210	=210	=210	=210
0G	1B-y	1.d	1b-y
.	1B-y	.	1b-y
.	.	4c	.
.	.	4d	.
=211	=211	=211	=211
0C	0c	1e	1a
.	.	(1c	[1g
=212	=212	=212	=212
0D	0F	2c)	2g]
.	.	4B-y	2f
.	.	4A	.
.	.	1B-y	[1f
=213	=213	=213	=213
0C	0G	0c	2f]
.	.	.	4e
.	.	.	4d
.	.	.	1e
=214	=214	=214	=214
2r	2.F	2r	2f
2.F	.	1c	1a
.	4G	.	.
.	2A	.	.
4E	.	.	.
2D	2B-y	2d	4g
.	.	.	4f
=215	=215	=215	=215
2C	2c	2e	4a
.	.	.	4g
1.BB-y	2.d	2.f	2.b-y
.	4c	4e	4a
.	4B-y	2d	4g
.	4A	.	4f
=216	=216	=216	=216
2C	2G	2c	2e
2D	2F	2B-y	1f
1C	1G	[1c	.
.	.	.	2e
=217	=217	=217	=217
2r	0F	1c]	1f
2F	.	.	.
2D	.	[1d	2r
[2F	.	.	[2a
=218	=218	=218	=218
4F]	1r	1d]	4a]
4E	.	.	4g
4D	.	.	2.b-y
4C	.	.	.
1D	1F	1B-y	.
.	.	.	4a
.	.	.	4g
.	.	.	4f
=219	=219	=219	=219
1C	1G	[0c	1e
1FF	1A	.	1f
=220	=220	=220	=220
0C;	0G;	0c;]	0e;
=221	=221	=221	=221
0FFl	0Fl	0cl	0fl
==	==	==	==
*-	*-	*-	*-
!!!system-decoration: s1,s2,s3,s4
!!!RDF**kern: i = editorial accidental
!!!RDF**kern: l = terminal long
!!!ENC: Raphaela Herzfeld
!!!END: 2026/6/6
!!!EED: Benjamin Ory
!!!EEV: 2026/07/13
!!!YEC: Copyright 2026 Benjamin Ory, All Rights Reserved
!!!ONB: Translated from MusicXML on 2026/07/13
!!!verovio: header encoded
!!!header-left: Edited by @{ENC} (2026)\n
!!!header-right:
!!!header-center:
!!muse2ps: C^@{COM}^i2I150v90,90,90,120c120z18l2770t130
